svg/color/bnt.svg

<svg width="64" height="65" viewBox="0 0 64 65" fill="none" xmlns="http://www.w3.org/2000/svg">
<g clip-path="url(#clip0_11313_1918)">
<rect y="0.303711" width="64" height="64" rx="32" fill="#000D2B"/>
<path d="M31.84 12.0638L22.804 17.3578L31.84 22.6538L41.046 17.3578L31.84 12.0638ZM33.326 40.3318V50.9218L45.6 43.9198V33.3278L33.326 40.3318ZM42.532 20.6878V31.2798L33.324 36.5758V25.9838L42.532 20.6878ZM20.368 31.2798L29.576 36.5758V25.9838L20.368 20.6878V31.2798ZM20.368 45.6278L29.576 50.9218V40.3318L20.368 35.0378V45.6258V45.6278Z" fill="white"/>
</g>
<rect x="0.5" y="0.803711" width="63" height="63" rx="31.5" stroke="white" stroke-opacity="0.15"/>
<defs>
<clipPath id="clip0_11313_1918">
<rect y="0.303711" width="64" height="64" rx="32" fill="white"/>
</clipPath>
</defs>
</svg>

<svg xmlns="http://www.w3.org/2000/svg" width="64" height="65" fill="none" viewBox="0 0 64 65"><g clip-path="url(#bnt_svg-a)"><rect width="64" height="64" y=".304" fill="#000D2B" rx="32"/><path fill="#fff" d="m31.84 12.064-9.036 5.294 9.036 5.296 9.206-5.296zm1.486 28.268v10.59L45.6 43.92V33.328zm9.206-19.644V31.28l-9.208 5.296V25.984zM20.368 31.28l9.208 5.296V25.984l-9.208-5.296zm0 14.348 9.208 5.294v-10.59l-9.208-5.294z"/></g><rect width="63" height="63" x=".5" y=".804" stroke="#fff" stroke-opacity=".15" rx="31.5"/><defs><clipPath id="bnt_svg-a"><rect width="64" height="64" y=".304" fill="#fff" rx="32"/></clipPath></defs></svg>
